public/icons/picto-white-arrow.svg

<svg fill="none" height="23" viewBox="0 0 23 23" width="23" xmlns="http://www.w3.org/2000/svg"><circle cx="11.5" cy="11.5" fill="#fff" r="11.5"/><path d="m10.329 17.0215c-.0833-.0736-.1488-.1628-.1922-.2617-.0433-.0989-.0634-.2052-.0591-.3119-.0194-.1068-.0194-.2159 0-.3227.0394-.098.1061-.1846.1933-.251l3.8656-3.5853h-9.14205c-.11489.0048-.22965-.012-.33733-.0495-.10768-.0374-.20605-.0947-.28916-.1685-.08311-.0737-.14923-.1623-.19437-.2604-.04513-.0981-.06834-.2037-.06822-.3104.00951-.2159.10623-.4205.27095-.5733s.38537-.2425.61813-.2513h9.21935l-3.8656-3.58538c-.0858-.07274-.1543-.16138-.2009-.2602-.0466-.09881-.0703-.2056-.0697-.31346.0024-.2226.0997-.43528.2706-.59158.0891-.08376.2038-.14009.3286-.16134.1087-.01776.2199-.01776.3286 0 .1151-.01805.2327-.01805.3479 0 .1136.0318.2145.09419.2899.17927l5.3538 4.96569c.1576.1557.2471.3602.2512.5737-.0047.2187-.0939.4286-.2512.5916l-5.3538 4.9657c-.0743.0901-.1749.1586-.2899.1972-.1217.0177-.2456.0177-.3673 0-.1216.0177-.2455.0177-.3672 0-.1125-.0511-.2115-.1245-.2899-.2152z" fill="#4550e5"/></svg>

<svg width="23" height="23" viewBox="0 0 23 23" fill="none" xmlns="http://www.w3.org/2000/svg">
<circle cx="11.5" cy="11.5" r="11.5" fill="white"/>
<path d="M10.329 17.0215C10.2457 16.9479 10.1802 16.8587 10.1368 16.7598C10.0935 16.6609 10.0734 16.5546 10.0777 16.4479C10.0583 16.3411 10.0583 16.232 10.0777 16.1252C10.1171 16.0272 10.1838 15.9406 10.271 15.8742L14.1366 12.2889H4.99455C4.87966 12.2937 4.7649 12.2769 4.65722 12.2394C4.54954 12.202 4.45117 12.1447 4.36806 12.0709C4.28495 11.9972 4.21883 11.9086 4.17369 11.8105C4.12856 11.7124 4.10535 11.6068 4.10547 11.5001C4.11498 11.2842 4.2117 11.0796 4.37642 10.9268C4.54114 10.774 4.76179 10.6843 4.99455 10.6755H14.2139L10.3483 7.09012C10.2625 7.01738 10.194 6.92874 10.1474 6.82992C10.1008 6.73111 10.0771 6.62432 10.0777 6.51646C10.0801 6.29386 10.1774 6.08118 10.3483 5.92488C10.4374 5.84112 10.5521 5.78479 10.6769 5.76354C10.7856 5.74578 10.8968 5.74578 11.0055 5.76354C11.1206 5.74549 11.2382 5.74549 11.3534 5.76354C11.467 5.79534 11.5679 5.85773 11.6433 5.94281L16.9971 10.9085C17.1547 11.0642 17.2442 11.2687 17.2483 11.4822C17.2436 11.7009 17.1544 11.9108 16.9971 12.0738L11.6433 17.0395C11.569 17.1296 11.4684 17.1981 11.3534 17.2367C11.2317 17.2544 11.1078 17.2544 10.9861 17.2367C10.8645 17.2544 10.7406 17.2544 10.6189 17.2367C10.5064 17.1856 10.4074 17.1122 10.329 17.0215Z" fill="#4550E5"/>
</svg>
